( Made using CamBam - http://www.cambam.co.uk )
( paintholder 11/5/2016 2:45:38 AM )
( T0 : 1.0 )
G21 G90 G64 G40
G0 Z3.0
( T0 : 1.0 )
T0 M6
( Profile1 )
G17
M3 S1000
G0 X32.0124 Y-33.8766
G0 Z1.0
G1 F100.0 Z-0.4
G1 X14.0124
G1 Y-28.1266
G1 X32.0124
G1 Y-33.8766
G1 Z-0.8
G1 X14.0124
G1 Y-28.1266
G1 X32.0124
G1 Y-33.8766
G1 Z-1.2
G1 X14.0124
G1 Y-28.1266
G1 X32.0124
G1 Y-33.8766
G1 Z-1.6
G1 X14.0124
G1 Y-28.1266
G1 X32.0124
G1 Y-33.8766
G1 Z-2.0
G1 X14.0124
G1 Y-28.1266
G1 X32.0124
G1 Y-33.8766
G1 Z-2.4
G1 X14.0124
G1 Y-28.1266
G1 X32.0124
G1 Y-33.8766
G1 Z-2.8
G1 X14.0124
G1 Y-28.1266
G1 X32.0124
G1 Y-33.8766
G1 Z-3.2
G1 X14.0124
G1 Y-28.1266
G1 X32.0124
G1 Y-33.8766
G1 Z-3.6
G1 X14.0124
G1 Y-28.1266
G1 X32.0124
G1 Y-33.8766
G1 Z-4.0
G1 X14.0124
G1 Y-28.1266
G1 X32.0124
G1 Y-33.8766
( Profile2 )
S1000
G0 Z3.0
G0 X9.5 Y-37.0134
G0 Z1.0
G1 Z-0.4
G1 Y-38.01
G3 X10.0 Y-38.51 I0.5 J0.0
G1 X31.5
G1 Y-50.79
G3 X34.0 Y-53.29 I2.5 J0.0
G1 X38.5
G3 X41.0 Y-50.79 I0.0 J2.5
G1 Y-41.5034
G1 X43.2354
G3 X57.3502 Y-54.8583 I23.986 J11.2145
G3 X59.0568 Y-59.5396 I5.8794 J-0.5084
G3 X66.3536 I3.6484 J3.6484
G3 X66.5 Y-59.1861 I-0.3536 J0.3536
G1 Y-46.0
G3 X66.0015 Y-45.5 I-0.5 J0.0
G2 Y-16.5 I0.0432 J14.5
G3 X66.5 Y-16.0 I-0.0015 J0.5
G1 Y-2.25
G3 X66.4762 Y-2.0976 I-0.5 J0.0
G3 X60.8365 Y-1.9208 I-2.8512 J-0.9123
G3 X43.7565 Y-20.4966 I26.7813 J-41.7652
G1 X41.0
G1 Y-11.21
G3 X38.5 Y-8.71 I-2.5 J0.0
G1 X34.0
G3 X31.5 Y-11.21 I0.0 J-2.5
G1 Y-23.4866
G1 X10.0
G3 X9.5 Y-23.9866 I0.0 J-0.5
G1 Y-24.9866
G1 X9.0
G1 Y-11.21
G3 X6.5 Y-8.71 I-2.5 J0.0
G1 X2.0
G3 X-0.5 Y-11.21 I0.0 J-2.5
G1 Y-50.79
G3 X2.0 Y-53.29 I2.5 J0.0
G1 X6.5
G3 X9.0 Y-50.79 I0.0 J2.5
G1 Y-37.0134
G1 X9.5
G1 Z-0.8
G1 Y-38.01
G3 X10.0 Y-38.51 I0.5 J0.0
G1 X31.5
G1 Y-50.79
G3 X34.0 Y-53.29 I2.5 J0.0
G1 X38.5
G3 X41.0 Y-50.79 I0.0 J2.5
G1 Y-41.5034
G1 X43.2354
G3 X57.3502 Y-54.8583 I23.986 J11.2145
G3 X59.0568 Y-59.5396 I5.8794 J-0.5084
G3 X66.3536 I3.6484 J3.6484
G3 X66.5 Y-59.1861 I-0.3536 J0.3536
G1 Y-46.0
G3 X66.0015 Y-45.5 I-0.5 J0.0
G2 Y-16.5 I0.0432 J14.5
G3 X66.5 Y-16.0 I-0.0015 J0.5
G1 Y-2.25
G3 X66.4762 Y-2.0976 I-0.5 J0.0
G3 X60.8365 Y-1.9208 I-2.8512 J-0.9123
G3 X43.7565 Y-20.4966 I26.7813 J-41.7652
G1 X41.0
G1 Y-11.21
G3 X38.5 Y-8.71 I-2.5 J0.0
G1 X34.0
G3 X31.5 Y-11.21 I0.0 J-2.5
G1 Y-23.4866
G1 X10.0
G3 X9.5 Y-23.9866 I0.0 J-0.5
G1 Y-24.9866
G1 X9.0
G1 Y-11.21
G3 X6.5 Y-8.71 I-2.5 J0.0
G1 X2.0
G3 X-0.5 Y-11.21 I0.0 J-2.5
G1 Y-50.79
G3 X2.0 Y-53.29 I2.5 J0.0
G1 X6.5
G3 X9.0 Y-50.79 I0.0 J2.5
G1 Y-37.0134
G1 X9.5
G1 Z-1.2
G1 Y-38.01
G3 X10.0 Y-38.51 I0.5 J0.0
G1 X31.5
G1 Y-50.79
G3 X34.0 Y-53.29 I2.5 J0.0
G1 X38.5
G3 X41.0 Y-50.79 I0.0 J2.5
G1 Y-41.5034
G1 X43.2354
G3 X57.3502 Y-54.8583 I23.986 J11.2145
G3 X59.0568 Y-59.5396 I5.8794 J-0.5084
G3 X66.3536 I3.6484 J3.6484
G3 X66.5 Y-59.1861 I-0.3536 J0.3536
G1 Y-46.0
G3 X66.0015 Y-45.5 I-0.5 J0.0
G2 Y-16.5 I0.0432 J14.5
G3 X66.5 Y-16.0 I-0.0015 J0.5
G1 Y-2.25
G3 X66.4762 Y-2.0976 I-0.5 J0.0
G3 X60.8365 Y-1.9208 I-2.8512 J-0.9123
G3 X43.7565 Y-20.4966 I26.7813 J-41.7652
G1 X41.0
G1 Y-11.21
G3 X38.5 Y-8.71 I-2.5 J0.0
G1 X34.0
G3 X31.5 Y-11.21 I0.0 J-2.5
G1 Y-23.4866
G1 X10.0
G3 X9.5 Y-23.9866 I0.0 J-0.5
G1 Y-24.9866
G1 X9.0
G1 Y-11.21
G3 X6.5 Y-8.71 I-2.5 J0.0
G1 X2.0
G3 X-0.5 Y-11.21 I0.0 J-2.5
G1 Y-50.79
G3 X2.0 Y-53.29 I2.5 J0.0
G1 X6.5
G3 X9.0 Y-50.79 I0.0 J2.5
G1 Y-37.0134
G1 X9.5
G1 Z-1.6
G1 Y-38.01
G3 X10.0 Y-38.51 I0.5 J0.0
G1 X31.5
G1 Y-50.79
G3 X34.0 Y-53.29 I2.5 J0.0
G1 X38.5
G3 X41.0 Y-50.79 I0.0 J2.5
G1 Y-41.5034
G1 X43.2354
G3 X57.3502 Y-54.8583 I23.986 J11.2145
G3 X59.0568 Y-59.5396 I5.8794 J-0.5084
G3 X66.3536 I3.6484 J3.6484
G3 X66.5 Y-59.1861 I-0.3536 J0.3536
G1 Y-46.0
G3 X66.0015 Y-45.5 I-0.5 J0.0
G2 Y-16.5 I0.0432 J14.5
G3 X66.5 Y-16.0 I-0.0015 J0.5
G1 Y-2.25
G3 X66.4762 Y-2.0976 I-0.5 J0.0
G3 X60.8365 Y-1.9208 I-2.8512 J-0.9123
G3 X43.7565 Y-20.4966 I26.7813 J-41.7652
G1 X41.0
G1 Y-11.21
G3 X38.5 Y-8.71 I-2.5 J0.0
G1 X34.0
G3 X31.5 Y-11.21 I0.0 J-2.5
G1 Y-23.4866
G1 X10.0
G3 X9.5 Y-23.9866 I0.0 J-0.5
G1 Y-24.9866
G1 X9.0
G1 Y-11.21
G3 X6.5 Y-8.71 I-2.5 J0.0
G1 X2.0
G3 X-0.5 Y-11.21 I0.0 J-2.5
G1 Y-50.79
G3 X2.0 Y-53.29 I2.5 J0.0
G1 X6.5
G3 X9.0 Y-50.79 I0.0 J2.5
G1 Y-37.0134
G1 X9.5
G1 Z-2.0
G1 Y-38.01
G3 X10.0 Y-38.51 I0.5 J0.0
G1 X31.5
G1 Y-50.79
G3 X34.0 Y-53.29 I2.5 J0.0
G1 X38.5
G3 X41.0 Y-50.79 I0.0 J2.5
G1 Y-41.5034
G1 X43.2354
G3 X57.3502 Y-54.8583 I23.986 J11.2145
G3 X59.0568 Y-59.5396 I5.8794 J-0.5084
G3 X66.3536 I3.6484 J3.6484
G3 X66.5 Y-59.1861 I-0.3536 J0.3536
G1 Y-46.0
G3 X66.0015 Y-45.5 I-0.5 J0.0
G2 Y-16.5 I0.0432 J14.5
G3 X66.5 Y-16.0 I-0.0015 J0.5
G1 Y-2.25
G3 X66.4762 Y-2.0976 I-0.5 J0.0
G3 X60.8365 Y-1.9208 I-2.8512 J-0.9123
G3 X43.7565 Y-20.4966 I26.7813 J-41.7652
G1 X41.0
G1 Y-11.21
G3 X38.5 Y-8.71 I-2.5 J0.0
G1 X34.0
G3 X31.5 Y-11.21 I0.0 J-2.5
G1 Y-23.4866
G1 X10.0
G3 X9.5 Y-23.9866 I0.0 J-0.5
G1 Y-24.9866
G1 X9.0
G1 Y-11.21
G3 X6.5 Y-8.71 I-2.5 J0.0
G1 X2.0
G3 X-0.5 Y-11.21 I0.0 J-2.5
G1 Y-50.79
G3 X2.0 Y-53.29 I2.5 J0.0
G1 X6.5
G3 X9.0 Y-50.79 I0.0 J2.5
G1 Y-37.0134
G1 X9.5
G1 Z-2.4
G1 Y-38.01
G3 X10.0 Y-38.51 I0.5 J0.0
G1 X31.5
G1 Y-50.79
G3 X34.0 Y-53.29 I2.5 J0.0
G1 X38.5
G3 X41.0 Y-50.79 I0.0 J2.5
G1 Y-41.5034
G1 X43.2354
G3 X57.3502 Y-54.8583 I23.986 J11.2145
G3 X59.0568 Y-59.5396 I5.8794 J-0.5084
G3 X66.3536 I3.6484 J3.6484
G3 X66.5 Y-59.1861 I-0.3536 J0.3536
G1 Y-46.0
G3 X66.0015 Y-45.5 I-0.5 J0.0
G2 Y-16.5 I0.0432 J14.5
G3 X66.5 Y-16.0 I-0.0015 J0.5
G1 Y-2.25
G3 X66.4762 Y-2.0976 I-0.5 J0.0
G3 X60.8365 Y-1.9208 I-2.8512 J-0.9123
G3 X43.7565 Y-20.4966 I26.7813 J-41.7652
G1 X41.0
G1 Y-11.21
G3 X38.5 Y-8.71 I-2.5 J0.0
G1 X34.0
G3 X31.5 Y-11.21 I0.0 J-2.5
G1 Y-23.4866
G1 X10.0
G3 X9.5 Y-23.9866 I0.0 J-0.5
G1 Y-24.9866
G1 X9.0
G1 Y-11.21
G3 X6.5 Y-8.71 I-2.5 J0.0
G1 X2.0
G3 X-0.5 Y-11.21 I0.0 J-2.5
G1 Y-50.79
G3 X2.0 Y-53.29 I2.5 J0.0
G1 X6.5
G3 X9.0 Y-50.79 I0.0 J2.5
G1 Y-37.0134
G1 X9.5
G1 Z-2.8
G1 Y-38.01
G3 X10.0 Y-38.51 I0.5 J0.0
G1 X31.5
G1 Y-50.79
G3 X34.0 Y-53.29 I2.5 J0.0
G1 X38.5
G3 X41.0 Y-50.79 I0.0 J2.5
G1 Y-41.5034
G1 X43.2354
G3 X57.3502 Y-54.8583 I23.986 J11.2145
G3 X59.0568 Y-59.5396 I5.8794 J-0.5084
G3 X66.3536 I3.6484 J3.6484
G3 X66.5 Y-59.1861 I-0.3536 J0.3536
G1 Y-46.0
G3 X66.0015 Y-45.5 I-0.5 J0.0
G2 Y-16.5 I0.0432 J14.5
G3 X66.5 Y-16.0 I-0.0015 J0.5
G1 Y-2.25
G3 X66.4762 Y-2.0976 I-0.5 J0.0
G3 X60.8365 Y-1.9208 I-2.8512 J-0.9123
G3 X43.7565 Y-20.4966 I26.7813 J-41.7652
G1 X41.0
G1 Y-11.21
G3 X38.5 Y-8.71 I-2.5 J0.0
G1 X34.0
G3 X31.5 Y-11.21 I0.0 J-2.5
G1 Y-23.4866
G1 X10.0
G3 X9.5 Y-23.9866 I0.0 J-0.5
G1 Y-24.9866
G1 X9.0
G1 Y-11.21
G3 X6.5 Y-8.71 I-2.5 J0.0
G1 X2.0
G3 X-0.5 Y-11.21 I0.0 J-2.5
G1 Y-50.79
G3 X2.0 Y-53.29 I2.5 J0.0
G1 X6.5
G3 X9.0 Y-50.79 I0.0 J2.5
G1 Y-37.0134
G1 X9.5
G1 Z-3.2
G1 Y-38.01
G3 X10.0 Y-38.51 I0.5 J0.0
G1 X31.5
G1 Y-50.79
G3 X34.0 Y-53.29 I2.5 J0.0
G1 X38.5
G3 X41.0 Y-50.79 I0.0 J2.5
G1 Y-41.5034
G1 X43.2354
G3 X57.3502 Y-54.8583 I23.986 J11.2145
G3 X59.0568 Y-59.5396 I5.8794 J-0.5084
G3 X66.3536 I3.6484 J3.6484
G3 X66.5 Y-59.1861 I-0.3536 J0.3536
G1 Y-46.0
G3 X66.0015 Y-45.5 I-0.5 J0.0
G2 Y-16.5 I0.0432 J14.5
G3 X66.5 Y-16.0 I-0.0015 J0.5
G1 Y-2.25
G3 X66.4762 Y-2.0976 I-0.5 J0.0
G3 X60.8365 Y-1.9208 I-2.8512 J-0.9123
G3 X43.7565 Y-20.4966 I26.7813 J-41.7652
G1 X41.0
G1 Y-11.21
G3 X38.5 Y-8.71 I-2.5 J0.0
G1 X34.0
G3 X31.5 Y-11.21 I0.0 J-2.5
G1 Y-23.4866
G1 X10.0
G3 X9.5 Y-23.9866 I0.0 J-0.5
G1 Y-24.9866
G1 X9.0
G1 Y-11.21
G3 X6.5 Y-8.71 I-2.5 J0.0
G1 X2.0
G3 X-0.5 Y-11.21 I0.0 J-2.5
G1 Y-50.79
G3 X2.0 Y-53.29 I2.5 J0.0
G1 X6.5
G3 X9.0 Y-50.79 I0.0 J2.5
G1 Y-37.0134
G1 X9.5
G1 Z-3.6
G1 Y-38.01
G3 X10.0 Y-38.51 I0.5 J0.0
G1 X31.5
G1 Y-50.79
G3 X34.0 Y-53.29 I2.5 J0.0
G1 X38.5
G3 X41.0 Y-50.79 I0.0 J2.5
G1 Y-41.5034
G1 X43.2354
G3 X57.3502 Y-54.8583 I23.986 J11.2145
G3 X59.0568 Y-59.5396 I5.8794 J-0.5084
G3 X66.3536 I3.6484 J3.6484
G3 X66.5 Y-59.1861 I-0.3536 J0.3536
G1 Y-46.0
G3 X66.0015 Y-45.5 I-0.5 J0.0
G2 Y-16.5 I0.0432 J14.5
G3 X66.5 Y-16.0 I-0.0015 J0.5
G1 Y-2.25
G3 X66.4762 Y-2.0976 I-0.5 J0.0
G3 X60.8365 Y-1.9208 I-2.8512 J-0.9123
G3 X43.7565 Y-20.4966 I26.7813 J-41.7652
G1 X41.0
G1 Y-11.21
G3 X38.5 Y-8.71 I-2.5 J0.0
G1 X34.0
G3 X31.5 Y-11.21 I0.0 J-2.5
G1 Y-23.4866
G1 X10.0
G3 X9.5 Y-23.9866 I0.0 J-0.5
G1 Y-24.9866
G1 X9.0
G1 Y-11.21
G3 X6.5 Y-8.71 I-2.5 J0.0
G1 X2.0
G3 X-0.5 Y-11.21 I0.0 J-2.5
G1 Y-50.79
G3 X2.0 Y-53.29 I2.5 J0.0
G1 X6.5
G3 X9.0 Y-50.79 I0.0 J2.5
G1 Y-37.0134
G1 X9.5
G1 Z-4.0
G1 Y-38.01
G3 X10.0 Y-38.51 I0.5 J0.0
G1 X31.5
G1 Y-50.79
G3 X34.0 Y-53.29 I2.5 J0.0
G1 X38.5
G3 X41.0 Y-50.79 I0.0 J2.5
G1 Y-41.5034
G1 X43.2354
G3 X57.3502 Y-54.8583 I23.986 J11.2145
G3 X59.0568 Y-59.5396 I5.8794 J-0.5084
G3 X66.3536 I3.6484 J3.6484
G3 X66.5 Y-59.1861 I-0.3536 J0.3536
G1 Y-46.0
G3 X66.0015 Y-45.5 I-0.5 J0.0
G2 Y-16.5 I0.0432 J14.5
G3 X66.5 Y-16.0 I-0.0015 J0.5
G1 Y-2.25
G3 X66.4762 Y-2.0976 I-0.5 J0.0
G3 X60.8365 Y-1.9208 I-2.8512 J-0.9123
G3 X43.7565 Y-20.4966 I26.7813 J-41.7652
G1 X41.0
G1 Y-11.21
G3 X38.5 Y-8.71 I-2.5 J0.0
G1 X34.0
G3 X31.5 Y-11.21 I0.0 J-2.5
G1 Y-23.4866
G1 X10.0
G3 X9.5 Y-23.9866 I0.0 J-0.5
G1 Y-24.9866
G1 X9.0
G1 Y-11.21
G3 X6.5 Y-8.71 I-2.5 J0.0
G1 X2.0
G3 X-0.5 Y-11.21 I0.0 J-2.5
G1 Y-50.79
G3 X2.0 Y-53.29 I2.5 J0.0
G1 X6.5
G3 X9.0 Y-50.79 I0.0 J2.5
G1 Y-37.0134
G1 X9.5
G0 Z3.0
M5
M30
